X: 37599
T: Smith's Burn
R: reel
M: 4/4
K: Amajor
d|c2 ec fddf|ecA=c B=GGB|c2 ec fddf|ecBc A/A/A A:|
g|a2 ec fddf|a2 ec B/B/B Bg|a2 ec fddf|ecBc A/A/A Ag|
a2 ec fddf|a2 ec B/B/B Bg|agfe fgaf|ecBc A/A/A A||

